X: 133
T: Ayrı Düştüm Sevgilimden
C: Yesârî Âsım Arsoy
O: Turkey
F: http://compmusic.upf.edu/node/140
N: suzinak--sarki--curcuna--ayri_dustum--yesari_asim_arsoy
N: makam= suzinak
N: form= sarki
N: usul= curcuna = 10/8
M: 10/8
L: 1/16
K: C _1/4B _7/8e ^f 
Q: 1/4=168
%%MIDI tuningsystem comma53
c6d4d4{e}d2 e2f2  | d14df edc2  | B6B4c2 d2B2 _7/8A2G2  | \
w:  Ay rı  düş  |  tüm  SAZ  |  sev gi lim  | 
G8-G2G_7/8A GFGA BcB2  | 
w:  den  SAZ  | 
B8 c2c8-c2  | e3d c4 g2g8-g2  | e8-e2e2 d2f2 e2d2  | d16-d4  | \
w:  dün *  ya   |  ba *  *  *  na   |  dar  ol  |  du    | 
e8-e2e2 d2f2 e2d2  | 
w:  SAZ  | 
d2cd .e2.d2 .c2Bc _7/8ABGA Bcd2  | \
w:  SAZ  | 
c6d4d4{e}d2 e2f2  | 
w:  Ay rı  düş  | 
d14df edc2  | B6B4c2 d2B2 _7/8A2G2  | \
w:  tüm  SAZ  |  sev gi lim  | 
G8-G2G_7/8A GFGA BcB2  | 
w:  den  SAZ  | 
B8 c2c8-c2  | e3d c4 g2g8-g2  | e8-e2e2 d2f2 e2d2  | d16-d4  | \
w:  dün *  ya   |  ba *  *  *  na   |  dar  ol  |  du    | 
e8-e2e2 d2f2 e2d2  | 
w:  SAZ  | 
d8-d2e3/2d/ efg6  | _7/8a8 agg4g4f2  | \
w:  SAZ  |  Gur *  *  bet   | 
e8 d2c3BcB cde2  | 
w:  el *  de  *  SAZ  | 
e6e2 d2e2 f2d2 c2{d}B2  | B14B3/2_7/8A/ BcAG  | \
w:  kim se *  *  *  si  |  zim  SAZ  | 
G4 G2_7/8A4B2 c2{d}B2 A2G2  | 
w:  *  bu na  se  | 
d10d4e2 f2g2  | g3f e2d2 c2d2 c2B2 _7/8A2AG  | .G16-.G4  | \
w:  bep   |  yâr  *  *  *  *  ol  |  du    | 
gg2f e2d2 {e}c2d2 {e}c2B2 _7/8A2G2  | 
w:  SAZ  | 
d8-d2e3/2d/ efg6  | _7/8a8 agg4g4f2  | \
w:  SAZ  |  Gur *  *  bet   | 
e8 d2c3BcB cde2  | 
w:  el *  de  *  SAZ  | 
e6e2 d2e2 f2d2 c2{d}B2  | B14B3/2_7/8A/ BcAG  | \
w:  kim se *  *  *  si  |  zim  SAZ  | 
G4 G2_7/8A4B2 c2{d}B2 A2G2  | 
w:  *  bu na  se  | 
d10d4e2 f2g2  | g3f e2d2 c2d2 c2B2 _7/8A2AG  | .G16-.G4  | \
w:  bep   |  yâr  *  *  *  *  ol  |  du    | 
gg2f e2d2 {e}c2d2 {e}c2B2 _7/8A2G2  | 
w:  SAZ  | 
c'8-c'2b_7/8a gfg2 a2b2  | c'4 b2c'4b2 _7/8a2g6  | \
w:  SAZ  |  *  O  yâr  i *  le   | 
g6b2 _7/8a2g2 f2e3de2  | 
w:  hoş ça  *  ge *  çen   | 
e16 e2g2  | g16-g4  | e16 e2.g2  | g8-g2_b3/2a/ gagf gafe  | \
w:  dem  |  ler   |  SAZ  |   | 
d4 f2e2 f2g2 a2f2 e2d2  | 
w:  *  ba na  *  kâr  *  ol  | 
d16-d4  | z4 c2d2 B2c4B_7/8A GFG2  | \
w:  du    |  ba na  *  kâr  ol  | 
d6d4d4d6  | z4 c2d2 B2c4B_7/8A GFG2  | 
w:  du    |  SAZ  | 
d8-d2e3/2d/ efg6  | _7/8a8 agg4g4f2  | \
w:   |  Gur *  *  bet   | 
e8 d2c3BcB cde2  | 
w:  el *  de  *  SAZ  | 
e6e2 d2e2 f2d2 c2{d}B2  | B14B3/2_7/8A/ BcAG  | \
w:  kim se *  *  *  si  |  zim  SAZ  | 
G4 G2_7/8A4B2 c2{d}B2 A2G2  | 
w:  *  bu na  se  | 
d10d4e2 f2g2  | g3f e2d2 c2d2 c2B2 _7/8A2AG  | .G16-.G4  | |


